!!!!SEGMENT: pl-sa--l-1643--013_anonim--hodie-beata-virgo-maria.krn
!!!cenid: 16xx:1368
!!!COM: Anonim
!!!COM-rismID: pe30004985
!!!CDT:
!!!CNT:
!!!OTL: Hodie Beata virgo Maria
!!!PDT:
!!!AGN: Sacred
!!!SMS-siglum: PL-SA
!!!SMS-shelfmark: L 1643
!!!SMS-shelfwork: 013 W
!!!SMS-variant:
!!!SMS-altvar:
!!!NIFC-rismSourceID: 1001064172
!!!NIFC-islandoraID:
!!!URL-pdf-islandora:
!!!URL-scan:
!!!ONB-nifc: UWAGA: 8 ksiąg. Primi chori: 1mus Cantus (brak), C 2dus (s. 33-34), C 3tius (brak), Bassus (43-44); Secondi chori: Primus Cantus (s. 85), C 2dus (s. 88), Altus (s. 42), Bassus (s. 87). UWAGA: metrum 2/2 i 3/2. Nie dodawać pustych linii, chyba że w rękopisie pojawiają się dodatkowe oznaczenia dotyczące pełnej obsady (a 4, a 8 itp)
!!!AIN: 1 alto 7 empty
!!!key:
**kern	**text	**kern	**text	**kern	**text	**kern	**text	**kern	**text	**kern	**kern	**text	**kern
*group2	*group2	*group2	*group2	*group2	*group2	*group2	*group2	*group1	*group1	*group1	*group1	*group1	*group1
*part8	*part8	*part7	*part7	*part6	*part6	*part5	*part5	*part4	*part4	*part3	*part2	*part2	*part1
*staff8	*staff8	*staff7	*staff7	*staff6	*staff6	*staff5	*staff5	*staff4	*staff4	*staff3	*staff2	*staff2	*staff1
*Iempty	*	*Ialto	*	*Iempty	*	*Iempty	*	*Iempty	*	*Iempty	*Iempty	*	*Iempty
*I"Baſsus 2di Chori	*	*I"Altus secondi Chori.	*	*I"Cantus 2dus Secondi Chori.	*	*I"Primus Cantus 2di Chori	*	*I"Bassus Primi Chori.	*	*I"Cantus 3tius Primi Chori	*I"Cantus 2dus Primi Chori.	*	*I"1mus Cantus Primi Chori
*I'Coro 2 B	*	*I'Coro 2 A	*	*I'Coro 2 S 2	*	*I'Coro 2 S 1	*	*I'Coro 1 B	*	*I'Coro 1 S 3	*I'Coro 1 S 2	*	*I'Coro 1 S 1
*clefC3	*	*clefC2	*	*clefC1	*	*clefG2	*	*clefC3	*	*	*clefC1	*	*
*k[b-]	*	*k[b-]	*	*k[b-]	*	*k[b-]	*	*k[b-]	*	*	*k[b-]	*	*
*g:	*	*g:	*	*g:	*	*g:	*	*g:	*	*	*g:	*	*
*M2/2	*	*M2/2	*	*M2/2	*	*M2/2	*	*M2/2	*	*	*M2/2	*	*
*met(c|)	*	*met(c|)	*	*met(c|)	*	*met(c|)	*	*met(c|)	*	*	*met(c|)	*	*
=1-	=1-	=1-	=1-	=1-	=1-	=1-	=1-	=1-	=1-	=1-	=1-	=1-	=1-
!LO:TX:a:t=Pro Festo Purificationis:color=red	!	!LO:TX:a:t=Pro Feſto Purificationis B. V. M.	!	!LO:TX:a:t=Pro Festo Purificationis B. V. M.:color=red	!	!LO:TX:a:t=Pro Festo Purificationis Beatae. M. V.:color=red	!	!LO:TX:a:t=PRo Festo Purificatio B. V. M. V 8	!	!	!	!	!
1r	.	1r	.	1r	.	1r	.	2.g\	Ho-	1ryy	2.b-\	Ho-	1ryy
.	.	.	.	.	.	.	.	4g\	-di-	.	4b-\	-di-	.
=2-	=2-	=2-	=2-	=2-	=2-	=2-	=2-	=2-	=2-	=2-	=2-	=2-	=2-
*	*color:red	*	*	*	*color:red	*	*color:red	*	*	*	*	*	*
2.c/	H-	2.e/	Ho-	2.g/	H-	2.cc\	H-	1c	-e	1ryy	1cc	-e	1ryy
*	*color:auto	*	*	*	*color:auto	*	*color:auto	*	*	*	*	*	*
4c/	-odi-	4e/	-di-	4g/	-odi-	4cc\	-odi-	.	.	.	.	.	.
=3-	=3-	=3-	=3-	=3-	=3-	=3-	=3-	=3-	=3-	=3-	=3-	=3-	=3-
2f\	-e	2a\	-e	2cc\	-e	2a/	-e	1F	Be-	1ryy	1cc	be-	1ryy
2f\	Be-	2f\	Be-	2cc\	Be-	2cc\	Be-	.	.	.	.	.	.
=4-	=4-	=4-	=4-	=4-	=4-	=4-	=4-	=4-	=4-	=4-	=4-	=4-	=4-
2f\	-a-	2c/	-a-	2a\	-a-	2cc\	-a-	2F/	-a-	1ryy	2a\	-a-	1ryy
2c/	-ta	2e/	-ta	2cc\	-ta	2cc\	-ta	2c/	-ta	.	2cc\	-ta	.
=5-	=5-	=5-	=5-	=5-	=5-	=5-	=5-	=5-	=5-	=5-	=5-	=5-	=5-
!	!	!	!	!LO:N:vis=1.	!	!	!	!	!	!	!	!	!
1g	Vir-	1g	Vir-	1g	Vir-	1dd	Vir-	1G	vir-	1ryy	1b-	vir-	1ryy
=6-	=6-	=6-	=6-	=6-	=6-	=6-	=6-	=6-	=6-	=6-	=6-	=6-	=6-
2c/	-go	2g\	-go	2g/	-go	2cc\	-go	2c/	-go-	1ryy	2cc\	-go	1ryy
2r	.	2r	.	2r	.	2r	.	2c/	-ma-	.	2cc\	ma-	.
=7-	=7-	=7-	=7-	=7-	=7-	=7-	=7-	=7-	=7-	=7-	=7-	=7-	=7-
00r	.	00r	.	00r	.	00r	.	1d	-ri-	1ryy	2.a\	-ri-	1ryy
.	.	.	.	.	.	.	.	.	.	.	4b-\	.	.
=8-	=8-	=8-	=8-	=8-	=8-	=8-	=8-	=8-	=8-	=8-	=8-	=8-	=8-
.	.	.	.	.	.	.	.	2c/	-a	1ryy	2cc\,<	-a	1ryy
.	.	.	.	.	.	.	.	2F/	Pu-	.	2a\	pu-	.
=9-	=9-	=9-	=9-	=9-	=9-	=9-	=9-	=9-	=9-	=9-	=9-	=9-	=9-
.	.	.	.	.	.	.	.	2B-/	-e-	1ryy	2b-\	-e-	1ryy
.	.	.	.	.	.	.	.	2B-/	-rum	.	2dd\	-rum	.
=10-	=10-	=10-	=10-	=10-	=10-	=10-	=10-	=10-	=10-	=10-	=10-	=10-	=10-
.	.	.	.	.	.	.	.	2.c/	Ie-	1ryy	1cc	ie-	1ryy
.	.	.	.	.	.	.	.	4d\	.	.	.	.	.
=11-	=11-	=11-	=11-	=11-	=11-	=11-	=11-	=11-	=11-	=11-	=11-	=11-	=11-
!	!	!	!	!	!	!	!	!	!	!	!LO:N:vis=0	!	!
00r	.	00r	.	00r	.	00r	.	1e-X	-ſum	1ryy	0b-	-ſum	1ryy
=12-	=12-	=12-	=12-	=12-	=12-	=12-	=12-	=12-	=12-	=12-	=12-	=12-	=12-
.	.	.	.	.	.	.	.	1B-	.	1ryy	.	.	1ryy
=13-	=13-	=13-	=13-	=13-	=13-	=13-	=13-	=13-	=13-	=13-	=13-	=13-	=13-
*	*	*	*	*	*	*	*	*custos:c	*	*	*	*	*
.	.	.	.	.	.	.	.	2G/	prae-	1ryy	2b-\	pre-	1ryy
!	!	!	!	!	!	!	!	!LO:LB:g=original	!	!	!	!	!
.	.	.	.	.	.	.	.	2c/	-sen-	.	2g/	.	.
=14-	=14-	=14-	=14-	=14-	=14-	=14-	=14-	=14-	=14-	=14-	=14-	=14-	=14-
.	.	.	.	.	.	.	.	2.d\	-ta-	1ryy	1dd	-sen-	1ryy
.	.	.	.	.	.	.	.	4eny\	.	.	.	.	.
=15-	=15-	=15-	=15-	=15-	=15-	=15-	=15-	=15-	=15-	=15-	=15-	=15-	=15-
00r	.	00r	.	00r	.	00r	.	1f	.	1ryy	2.a\	-ta-	1ryy
.	.	.	.	.	.	.	.	.	.	.	4b-\	-uit	.
=16-	=16-	=16-	=16-	=16-	=16-	=16-	=16-	=16-	=16-	=16-	=16-	=16-	=16-
.	.	.	.	.	.	.	.	2.c/	-vit	1ryy	1cc	.	1ryy
.	.	.	.	.	.	.	.	4d\	.	.	.	.	.
=17-	=17-	=17-	=17-	=17-	=17-	=17-	=17-	=17-	=17-	=17-	=17-	=17-	=17-
.	.	.	.	.	.	.	.	2e-X\	.	1ryy	4g/	in	1ryy
.	.	.	.	.	.	.	.	.	.	.	4a\	.	.
*	*	*	*	*	*	*	*	*	*	*	*custos:g	*	*
.	.	.	.	.	.	.	.	2B-/	in	.	2b-\	.	.
=18-	=18-	=18-	=18-	=18-	=18-	=18-	=18-	=18-	=18-	=18-	=18-	=18-	=18-
!	!	!	!	!	!	!	!	!	!	!	!LO:LB:g=original	!	!
.	.	.	.	.	.	.	.	1c	tem-	1ryy	2g/	tem-	1ryy
.	.	.	.	.	.	.	.	.	.	.	2cc\	.	.
=19-	=19-	=19-	=19-	=19-	=19-	=19-	=19-	=19-	=19-	=19-	=19-	=19-	=19-
!	!	!	!	!	!	!	!	!	!	!	!LO:TX:t=P:problem=kreska pseudotaktowa przerywana	!	!
!	!	!	!	!	!	!	!	!	!	!	!LO:TX:t=P:problem=# below	!	!
!LO:TX:t=P:problem=kreska pseudotaktowa przerywana	!	!LO:TX:t=P:problem=kreska pseudotaktowa przerywana	!	!LO:TX:t=P:problem=kreska pseudotaktowa przerywana	!	!LO:TX:t=P:problem=kreska pseudotaktowa przerywana	!	!LO:TX:t=P:problem=kreska pseudotaktowa przerywana	!	!	!LO:N:acc=#	!	!
1r	.	1r	.	1r	.	1r	.	1G	-plo	1ryy	1bn	-plo	1ryy
=20-	=20-	=20-	=20-	=20-	=20-	=20-	=20-	=20-	=20-	=20-	=20-	=20-	=20-
1B-	Et	1f	Et	1b-	Et	1dd	Et	0r	.	1ryy	0r	.	1ryy
=21-	=21-	=21-	=21-	=21-	=21-	=21-	=21-	=21-	=21-	=21-	=21-	=21-	=21-
2G/	Si-	2g\	Si-	2dd\	Si-	2b-/	Si-	.	.	1ryy	.	.	1ryy
2A/	-me-	2c/	-me-	2cc\	-me-	2cc\	-me-	.	.	.	.	.	.
=22-	=22-	=22-	=22-	=22-	=22-	=22-	=22-	=22-	=22-	=22-	=22-	=22-	=22-
2B-/	-on	2f\	-on	2b-\	-on	2dd\	-on	2r	.	1ryy	2r	.	1ryy
*	*	*	*	*custos:cc	*	*	*	*	*	*	*	*	*
2r	.	2r	.	2r	.	2r	.	2g\	Re-	.	2b-y\	re-	.
=23-	=23-	=23-	=23-	=23-	=23-	=23-	=23-	=23-	=23-	=23-	=23-	=23-	=23-
!	!	!	!	!LO:LB:g=original	!	!	!	!	!	!	!	!	!
00r	.	00r	.	00r	.	00r	.	1d	-ple-	1ryy	2.a\	-ple-	1ryy
.	.	.	.	.	.	.	.	.	.	.	4b-\	-tus	.
=24-	=24-	=24-	=24-	=24-	=24-	=24-	=24-	=24-	=24-	=24-	=24-	=24-	=24-
.	.	.	.	.	.	.	.	2c/	-tus	1ryy	2cc\	.	1ryy
.	.	.	.	.	.	.	.	2.f\	spi-	.	2.cc\	spi-	.
=25-	=25-	=25-	=25-	=25-	=25-	=25-	=25-	=25-	=25-	=25-	=25-	=25-	=25-
.	.	.	.	.	.	.	.	.	.	1ryy	.	.	1ryy
.	.	.	.	.	.	.	.	4f\	-ri-	.	4cc\	-ri-	.
.	.	.	.	.	.	.	.	2c/	-tu	.	2cc.\	-tu	.
=26-	=26-	=26-	=26-	=26-	=26-	=26-	=26-	=26-	=26-	=26-	=26-	=26-	=26-
.	.	.	.	.	.	.	.	1G	San-	1ryy	.	.	1ryy
.	.	.	.	.	.	.	.	.	.	.	8b-\L	san-	.
.	.	.	.	.	.	.	.	.	.	.	8a\J	.	.
!	!	!	!	!	!	!	!	!	!	!	!LO:TX:t=P:problem=# below	!	!
!	!	!	!	!	!	!	!	!	!	!	!LO:N:acc=#	!	!
.	.	.	.	.	.	.	.	.	.	.	2bn\	-cto	.
=27-	=27-	=27-	=27-	=27-	=27-	=27-	=27-	=27-	=27-	=27-	=27-	=27-	=27-
*	*	*	*	*	*	*	*	*custos:c	*	*	*	*	*
2r	.	2r	.	2r	.	2r	.	2c/	-cto	1ryy	2cc\	.	1ryy
*custos:B-	*	*	*	*	*	*custos:dd	*	*	*	*	*	*	*
!	!	!	!	!	!	!	!	!LO:LB:g=original	!	!	!	!	!
2f\	&	2a\	&	2cc\	&	2cc\	&	2r	.	.	2r	.	.
=28-	=28-	=28-	=28-	=28-	=28-	=28-	=28-	=28-	=28-	=28-	=28-	=28-	=28-
!LO:LB:g=original	!	!	!	!	!	!	!LO:LB:g=original	!	!	!	!	!	!
2B-/	Si-	2b-\	si-	2b-\	Si-	2dd\	Si-	1r	.	1ryy	1r	.	1ryy
2B-/	-me-	2b-\	-me-	2b-\	-me-	2dd\	-me-	.	.	.	.	.	.
=29-	=29-	=29-	=29-	=29-	=29-	=29-	=29-	=29-	=29-	=29-	=29-	=29-	=29-
*	*	*custos:g	*	*	*	*	*	*	*	*	*	*	*
!	!	!	!	!	!	!	!	!LO:TX:t=P:problem=niewyraźne źródło	!	!	!	!	!
2f\	-on	2a\	-on	2cc\	-on	2cc\	-on	2ryy	.	1ryy	2r	.	1ryy
!	!	!LO:LB:g=original	!	!	!	!	!	!	!	!	!	!	!
2r	.	2r	.	2r	.	2r	.	2c/	re-	.	2cc\	re-	.
=30-	=30-	=30-	=30-	=30-	=30-	=30-	=30-	=30-	=30-	=30-	=30-	=30-	=30-
00r	.	00r	.	00r	.	00r	.	1G	-ple-	1ryy	1dd	-ple-	1ryy
=31-	=31-	=31-	=31-	=31-	=31-	=31-	=31-	=31-	=31-	=31-	=31-	=31-	=31-
.	.	.	.	.	.	.	.	2c/	-tus	1ryy	2cc\	-tus	1ryy
.	.	.	.	.	.	.	.	2.G/	Spi-	.	2b.-\	spi-	.
=32-	=32-	=32-	=32-	=32-	=32-	=32-	=32-	=32-	=32-	=32-	=32-	=32-	=32-
.	.	.	.	.	.	.	.	.	.	1ryy	.	.	1ryy
.	.	.	.	.	.	.	.	4G/	-ri-	.	4cc\	-ri-	.
.	.	.	.	.	.	.	.	2d\	-tu	.	2dd.\	-tu	.
=33-	=33-	=33-	=33-	=33-	=33-	=33-	=33-	=33-	=33-	=33-	=33-	=33-	=33-
.	.	.	.	.	.	.	.	1A	san-	1ryy	.	.	1ryy
.	.	.	.	.	.	.	.	.	.	.	8cc\L	.	.
.	.	.	.	.	.	.	.	.	.	.	8b-\J	.	.
!	!	!	!	!	!	!	!	!	!	!	!LO:TX:t=P:problem=# below	!	!
.	.	.	.	.	.	.	.	.	.	.	2cc#X\	san-	.
=34-	=34-	=34-	=34-	=34-	=34-	=34-	=34-	=34-	=34-	=34-	=34-	=34-	=34-
*	*	*	*	*	*	*	*	*	*	*	*custos:b-	*	*
0r	.	0r	.	0r	.	0r	.	2d\	-cto	1ryy	2dd\	-cto	1ryy
!	!	!	!	!	!	!	!	!	!	!	!LO:LB:g=original	!	!
.	.	.	.	.	.	.	.	2g\	ac-	.	2b-\	ac-	.
=35-	=35-	=35-	=35-	=35-	=35-	=35-	=35-	=35-	=35-	=35-	=35-	=35-	=35-
!	!	!	!	!	!	!	!	!LO:TX:t=P:problem=# below	!	!	!	!	!
.	.	.	.	.	.	.	.	2f#X\	-ce-	1ryy	2a\	-ce-	1ryy
!	!	!	!	!	!	!	!	!LO:TX:t=P:problem=# below	!	!	!	!	!
.	.	.	.	.	.	.	.	2f#X\	-pit	.	2dd\	-pit	.
=36-	=36-	=36-	=36-	=36-	=36-	=36-	=36-	=36-	=36-	=36-	=36-	=36-	=36-
1r	.	1r	.	1r	.	1r	.	1g	e-	1ryy	1b-	e-	1ryy
=37-	=37-	=37-	=37-	=37-	=37-	=37-	=37-	=37-	=37-	=37-	=37-	=37-	=37-
2r	.	2r	.	2r	.	2r	.	2d\	-um	1ryy	2a\	-um	1ryy
2g\	ac-	2g\	ac-	2b-\	ac-	2dd\	ac-	2r	.	.	2r	.	.
=38-	=38-	=38-	=38-	=38-	=38-	=38-	=38-	=38-	=38-	=38-	=38-	=38-	=38-
!LO:TX:t=P:problem=# below	!	!	!	!	!	!	!	!	!	!	!	!	!
2f#X\	-ce-	2a\	-ce-	2a\	-ce-	2dd\	-ce-	0r	.	1ryy	0r	.	1ryy
!LO:TX:t=P:problem=# below	!	!	!	!	!	!	!	!	!	!	!	!	!
2f#X\	-pit	2a\	-pit	2dd\	-pit	2a/	-pit	.	.	.	.	.	.
=39-	=39-	=39-	=39-	=39-	=39-	=39-	=39-	=39-	=39-	=39-	=39-	=39-	=39-
1g	e-	1g	e-	1b-	e-	2.b-/	e-	.	.	1ryy	.	.	1ryy
.	.	.	.	.	.	4cc\	.	.	.	.	.	.	.
=40-	=40-	=40-	=40-	=40-	=40-	=40-	=40-	=40-	=40-	=40-	=40-	=40-	=40-
!	!	!LO:TX:t=P:problem=# below	!	!	!	!	!	!	!	!	!	!	!
2d\	-um	2f#X\	-um	2a\	-um	2dd\	-um	2r	.	1ryy	2r	.	1ryy
2r	.	2r	.	2r	.	2r	.	2g\	ac-	.	2b-\	ac-	.
=41-	=41-	=41-	=41-	=41-	=41-	=41-	=41-	=41-	=41-	=41-	=41-	=41-	=41-
!	!	!	!	!	!	!	!	!LO:TX:t=P:problem=# below	!	!	!	!	!
0r	.	0r	.	0r	.	0r	.	2f#X\	-ce-	1ryy	2a\	-ce-	1ryy
!	!	!	!	!	!	!	!	!LO:TX:t=P:problem=# below	!	!	!	!	!
.	.	.	.	.	.	.	.	2f#X\	-pit	.	2dd\	-pit	.
=42-	=42-	=42-	=42-	=42-	=42-	=42-	=42-	=42-	=42-	=42-	=42-	=42-	=42-
.	.	.	.	.	.	.	.	1g	e-	1ryy	1b-	e-	1ryy
=43-	=43-	=43-	=43-	=43-	=43-	=43-	=43-	=43-	=43-	=43-	=43-	=43-	=43-
*	*	*	*	*	*	*	*	*custos:B-	*	*	*	*	*
2r	.	2r	.	2r	.	2r	.	2d\	-um	1ryy	2a\	-um	1ryy
!	!	!	!	!	!	!	!	!LO:LB:g=original	!	!	!	!	!
2g\	in	2g\	in	2b-\	in	2b-/	in	2r	.	.	2r	.	.
=44-	=44-	=44-	=44-	=44-	=44-	=44-	=44-	=44-	=44-	=44-	=44-	=44-	=44-
2fny\	Vl-	2a\	Vl-	2a\	Vl-	2cc\	vl-	0r	.	1ryy	0r	.	1ryy
2d\	-nas	2fny\	-nas	2a\	-nas	1dd\	-nas	.	.	.	.	.	.
=45-	=45-	=45-	=45-	=45-	=45-	=45-	=45-	=45-	=45-	=45-	=45-	=45-	=45-
1A	su-	1e	su-	1a	su-	.	.	.	.	1ryy	.	.	1ryy
!	!	!	!	!	!	!LO:TX:t=P:problem=# below	!	!	!	!	!	!	!
.	.	.	.	.	.	2cc#X\	ſu-	.	.	.	.	.	.
=46-	=46-	=46-	=46-	=46-	=46-	=46-	=46-	=46-	=46-	=46-	=46-	=46-	=46-
!	!	!LO:TX:t=P:problem=# below	!	!	!	!	!	!	!	!	!	!	!
2d\	-as,	2f#X\	-as	2a\	-as	2dd\	-as,	2r	.	1ryy	2r	.	1ryy
*	*	*	*	*	*	*	*	*	*ij	*	*	*	*
2r	.	2r	.	2r	.	2r	.	2B-/	ac-	.	2dd\	ac-	.
=47-	=47-	=47-	=47-	=47-	=47-	=47-	=47-	=47-	=47-	=47-	=47-	=47-	=47-
0r	.	0r	.	0r	.	0r	.	2fny\	-ce-	1ryy	2ccny\	-ce-	1ryy
.	.	.	.	.	.	.	.	2f\	-pit	.	2cc\	-pit	.
=48-	=48-	=48-	=48-	=48-	=48-	=48-	=48-	=48-	=48-	=48-	=48-	=48-	=48-
.	.	.	.	.	.	.	.	1g	e-	1ryy	1b-	e-	1ryy
=49-	=49-	=49-	=49-	=49-	=49-	=49-	=49-	=49-	=49-	=49-	=49-	=49-	=49-
2r	.	2r	.	2r	.	2r	.	2d\	-um	1ryy	2a\	-um	1ryy
*	*	*	*	*custos:a	*	*	*	*	*	*	*	*	*
2g\	in	2g\	in	2b-\	in	4b-/	in	2r	.	.	2r	.	.
.	.	.	.	.	.	4ccny\	.	.	.	.	.	.	.
=50-	=50-	=50-	=50-	=50-	=50-	=50-	=50-	=50-	=50-	=50-	=50-	=50-	=50-
!	!	!	!	!LO:LB:g=original	!	!	!	!	!	!	!	!	!
2d\	Vl-	2a\	Ul-	2a\	Vl-	2dd\	vl-	0r	.	1ryy	0r	.	1ryy
*custos:A	*	*	*	*	*	*	*	*	*	*	*	*	*
2d\	-nas	2fny\	-nas	2a\	-nas	2dd.\	-nas	.	.	.	.	.	.
=51-	=51-	=51-	=51-	=51-	=51-	=51-	=51-	=51-	=51-	=51-	=51-	=51-	=51-
1A	su-	1e	su-	1a	su-	.	.	.	.	1ryy	.	.	1ryy
.	.	.	.	.	.	8cc\L	.	.	.	.	.	.	.
*	*	*	*	*	*	*custos:cc	*	*	*	*	*	*	*
.	.	.	.	.	.	8b-\J	.	.	.	.	.	.	.
!	!	!	!	!	!	!LO:LB:g=original	!	!	!	!	!	!	!
.	.	.	.	.	.	2cc\	ſu-	.	.	.	.	.	.
=52-	=52-	=52-	=52-	=52-	=52-	=52-	=52-	=52-	=52-	=52-	=52-	=52-	=52-
2d\	-as	2f\	-as	2a\	-as	2dd\	-as	2r	.	1ryy	2r	.	1ryy
2r	.	2r	.	2r	.	2r	.	2g\	ac-	.	2b-\	ac-	.
=53-	=53-	=53-	=53-	=53-	=53-	=53-	=53-	=53-	=53-	=53-	=53-	=53-	=53-
0r	.	0r	.	0r	.	0r	.	2e-X\	-ce-	1ryy	2cc\	-ce-	1ryy
.	.	.	.	.	.	.	.	2B-/	-pit	.	2dd\	-pit	.
=54-	=54-	=54-	=54-	=54-	=54-	=54-	=54-	=54-	=54-	=54-	=54-	=54-	=54-
.	.	.	.	.	.	.	.	1c	e-	1ryy	1cc	e-	1ryy
=55-	=55-	=55-	=55-	=55-	=55-	=55-	=55-	=55-	=55-	=55-	=55-	=55-	=55-
2r	.	2r	.	2r	.	2r	.	2G/	-um	1ryy	2dd\	-um	1ryy
*	*	*	*	*	*	*	*	*	*Xij	*	*	*	*
*	*	*custos:e	*	*	*	*	*	*	*	*	*	*	*
2d\	in	2a\	in	4a\	in	2ff\	in	2r	.	.	2r	.	.
.	.	.	.	4b-\	.	.	.	.	.	.	.	.	.
=56-	=56-	=56-	=56-	=56-	=56-	=56-	=56-	=56-	=56-	=56-	=56-	=56-	=56-
!	!	!LO:LB:g=original	!	!	!	!	!	!	!	!	!	!	!
2c/	Vl-	2e/	ul-	2cc\	Vl-	2ee\	vl-	0r	.	1ryy	0r	.	1ryy
2B-/	-nas	2a\	-nas	1dd\	-nas	2dd\	-nas	.	.	.	.	.	.
=57-	=57-	=57-	=57-	=57-	=57-	=57-	=57-	=57-	=57-	=57-	=57-	=57-	=57-
1A	su-	1a	su-	.	.	1ee	ſu-	.	.	1ryy	.	.	1ryy
!	!	!	!	!LO:TX:t=P:problem=# below	!	!	!	!	!	!	!	!	!
.	.	.	.	2cc#X\	ſu-	.	.	.	.	.	.	.	.
=58-	=58-	=58-	=58-	=58-	=58-	=58-	=58-	=58-	=58-	=58-	=58-	=58-	=58-
2d\	-as	2a\	-as	2dd\	-as	2dd\	-as	2r	.	1ryy	2r	.	1ryy
2r	.	2r	.	2r	.	2r	.	2B-/	&	.	2b-\	et	.
=59-	=59-	=59-	=59-	=59-	=59-	=59-	=59-	=59-	=59-	=59-	=59-	=59-	=59-
0r	.	0r	.	0r	.	0r	.	2B-/	Be-	1ryy	2b-\	be-	1ryy
*	*	*	*	*	*	*	*	*	*	*	*custos:b-	*	*
!	!	!	!	!	!	!	!	!	!	!	!LO:TX:b:t=dixit	!	!
!	!	!	!	!	!	!	!	!	!	!	!LO:SIC:v:t=custos tekstowy dixit	!	!
.	.	.	.	.	.	.	.	2B-/	-ne-	.	2b-\	-ne-	.
=60-	=60-	=60-	=60-	=60-	=60-	=60-	=60-	=60-	=60-	=60-	=60-	=60-	=60-
*	*	*	*	*	*	*	*	*custos:B-	*	*	*	*	*
!	!	!	!	!	!	!	!	!	!	!	!LO:PB:g=oryginal	!	!
.	.	.	.	.	.	.	.	2e-X\	-di-	1ryy	2b-\	-di-	1ryy
!	!	!	!	!	!	!	!	!LO:PB:g=original	!	!	!	!	!
.	.	.	.	.	.	.	.	2B-/	-xit	.	2.b-\	-xit	.
=61-	=61-	=61-	=61-	=61-	=61-	=61-	=61-	=61-	=61-	=61-	=61-	=61-	=61-
1r	.	1r	.	1r	.	1r	.	1G	de-	1ryy	.	.	1ryy
.	.	.	.	.	.	.	.	.	.	.	8a\L	.	.
.	.	.	.	.	.	.	.	.	.	.	8g\J	.	.
.	.	.	.	.	.	.	.	.	.	.	2a\	de-	.
=62-	=62-	=62-	=62-	=62-	=62-	=62-	=62-	=62-	=62-	=62-	=62-	=62-	=62-
2r	.	2r	.	2r	.	2r	.	2B-/	-um	1ryy	2b-\	-um	1ryy
1B-/	in	1f\	in	1b-\	in	1dd\	in	2r	.	.	2r	.	.
=63-	=63-	=63-	=63-	=63-	=63-	=63-	=63-	=63-	=63-	=63-	=63-	=63-	=63-
.	.	.	.	.	.	.	.	0r	.	1ryy	0r	.	1ryy
2G/	ae-	2.g\	et-	2dd\	ae-	2b-/	ae-	.	.	.	.	.	.
=64-	=64-	=64-	=64-	=64-	=64-	=64-	=64-	=64-	=64-	=64-	=64-	=64-	=64-
1d	-ter-	.	.	1dd	-ter-	1a	-ter-	.	.	1ryy	.	.	1ryy
.	.	8f\L	.	.	.	.	.	.	.	.	.	.	.
.	.	8e\J	.	.	.	.	.	.	.	.	.	.	.
.	.	2f\	-er-	.	.	.	.	.	.	.	.	.	.
=65-	=65-	=65-	=65-	=65-	=65-	=65-	=65-	=65-	=65-	=65-	=65-	=65-	=65-
!	!	!	!	!LO:N:acc=#	!	!	!	!	!	!	!	!	!
!	!	!	!	!LO:TX:t=P:problem=# below	!	!	!	!	!	!	!	!	!
2G/	-num	2g\	-num	2bn\	-num	2g/	-num	2r	.	1ryy	2r	.	1ryy
2r	.	2r	.	2r	.	2r	.	2B-/	et	.	2dd\	et	.
=66-	=66-	=66-	=66-	=66-	=66-	=66-	=66-	=66-	=66-	=66-	=66-	=66-	=66-
0r	.	0r	.	0r	.	0r	.	2B-/	Be-	1ryy	2dd\	be-	1ryy
.	.	.	.	.	.	.	.	2B-/	-ne-	.	2dd\	-ne-	.
=67-	=67-	=67-	=67-	=67-	=67-	=67-	=67-	=67-	=67-	=67-	=67-	=67-	=67-
.	.	.	.	.	.	.	.	2e-X\	-di-	1ryy	2b-\	-di-	1ryy
.	.	.	.	.	.	.	.	2d\	-xit	.	2b-\	-xit	.
=68-	=68-	=68-	=68-	=68-	=68-	=68-	=68-	=68-	=68-	=68-	=68-	=68-	=68-
1r	.	1r	.	1r	.	1r	.	1c	de-	1ryy	1cc	de-	1ryy
=69-	=69-	=69-	=69-	=69-	=69-	=69-	=69-	=69-	=69-	=69-	=69-	=69-	=69-
2r	.	2r	.	2r	.	2r	.	2B-/	-um	1ryy	2dd\	-um	1ryy
1B-/	in	1b-\	in	1dd\	in	1ff\	in	2r	.	.	2r	.	.
=70-	=70-	=70-	=70-	=70-	=70-	=70-	=70-	=70-	=70-	=70-	=70-	=70-	=70-
.	.	.	.	.	.	.	.	0r	.	1ryy	0r	.	1ryy
4d\	ae-	4a\	e-	2a\	ae-	2dd\	ae-	.	.	.	.	.	.
4e\	.	4g\	.	.	.	.	.	.	.	.	.	.	.
=71-	=71-	=71-	=71-	=71-	=71-	=71-	=71-	=71-	=71-	=71-	=71-	=71-	=71-
*	*	*	*	*custos:dd	*	*	*	*	*	*	*	*	*
1f	-ter-	1a	-ter-	1ccny	-ter-	1cc	-ter-	.	.	1ryy	.	.	1ryy
=72-	=72-	=72-	=72-	=72-	=72-	=72-	=72-	=72-	=72-	=72-	=72-	=72-	=72-
*custos:d	*	*	*	*	*	*	*	*	*	*	*	*	*
!	!	!	!	!LO:LB:g=original	!	!	!	!	!	!	!	!	!
2B-/	-num	2b-\	-num	2dd\	-num	2b-/	-num	2r	.	1ryy	2r	.	1ryy
!LO:LB:g=original	!	!	!	!	!	!	!	!	!	!	!	!	!
2r	.	2r	.	2r	.	2r	.	1B-/	in-	.	1dd\	in	.
=73-	=73-	=73-	=73-	=73-	=73-	=73-	=73-	=73-	=73-	=73-	=73-	=73-	=73-
0r	.	0r	.	0r	.	0r	.	.	.	1ryy	.	.	1ryy
.	.	.	.	.	.	.	.	2A/	-e-	.	2a\	e-	.
=74-	=74-	=74-	=74-	=74-	=74-	=74-	=74-	=74-	=74-	=74-	=74-	=74-	=74-
.	.	.	.	.	.	.	.	1G	-ter-	1ryy	1b-	-ter-	1ryy
=75-	=75-	=75-	=75-	=75-	=75-	=75-	=75-	=75-	=75-	=75-	=75-	=75-	=75-
*	*	*	*	*	*	*custos:dd	*	*	*	*	*	*	*
2r	.	2r	.	2r	.	2r	.	2F/	-num	1ryy	2cc,<\	-num	1ryy
!	!	!	!	!	!	!LO:LB:g=original	!	!	!	!	!	!	!
*	*	*	*	*	*	*	*ij	*	*	*	*	*	*
2d\	in	2d/	in	2a\	in	2dd\	in	2B-/	in	.	2dd\	in	.
=76-	=76-	=76-	=76-	=76-	=76-	=76-	=76-	=76-	=76-	=76-	=76-	=76-	=76-
2g\	ae-	2d/	e-	2b-y\	ae-	2dd\	ae-	2G/	e-	1ryy	2b-\	e-	1ryy
2g\	-ter-	2d/	-ter-	2b-\	-ter-	2dd\	-ter-	2G/	-ter-	.	2b-\	-ter-	.
=77-	=77-	=77-	=77-	=77-	=77-	=77-	=77-	=77-	=77-	=77-	=77-	=77-	=77-
*	*	*custos:d	*	*	*	*	*	*	*	*	*	*	*
2c/	-num	2g\	-num	2g/	-num	2cc\	-num	2c\	-num	1ryy	2cc\,<	-num	1ryy
*	*	*	*	*	*ij	*	*	*	*	*	*	*	*
*	*	*	*	*	*	*	*	*custos:d	*	*	*	*	*
!	!	!LO:LB:g=original	!	!	!	!	!	!	!	!	!	!	!
2g\	in	2d/	in	2g/	in	2dd\	in	2G/	in	.	2dd\	in	.
!	!	!	!	!	!	!	!	!LO:LB:g=original	!	!	!	!	!
=78-	=78-	=78-	=78-	=78-	=78-	=78-	=78-	=78-	=78-	=78-	=78-	=78-	=78-
1.d	ae-	1.d	e-	1.dd	ae-	1.dd	ae-	1.d	e-	1ryy	1.dd	e-	1ryy
=79-	=79-	=79-	=79-	=79-	=79-	=79-	=79-	=79-	=79-	=79-	=79-	=79-	=79-
.	.	.	.	.	.	.	.	.	.	1ryy	.	.	1ryy
!	!	!	!	!LO:TX:t=P:problem=kreska pseudotaktowa przerywana	!	!	!	!	!	!	!	!	!
!LO:TX:t=P:problem=kreska pseudotaktowa przerywana	!	!LO:TX:t=P:problem=kreska pseudotaktowa przerywana	!	!LO:TX:t=P:problem=# below	!	!LO:TX:t=P:problem=kreska pseudotaktowa przerywana	!	!LO:TX:t=P:problem=kreska pseudotaktowa przerywana	!	!	!	!	!
!	!	!	!	!LO:SIC:v:s=2dd	!	!	!	!	!	!	!	!	!
2d\	-ter-	2d/	-ter-	2dd#X\	-ter-	2dd\	-ter-	2d\	-ter-	.	2a\	-ter-	.
=80-	=80-	=80-	=80-	=80-	=80-	=80-	=80-	=80-	=80-	=80-	=80-	=80-	=80-
!LO:N:vis=00	!	!LO:N:vis=00	!	!LO:N:vis=00	!	!LO:N:vis=00	!	!LO:N:vis=00	!	!	!LO:N:vis=00	!	!
1g;;	-num	1d\	-num	1b-;;	-num	1dd;	-num	1G;<	-num	1ryy	1b-;;	-num.	1ryy
*	*	*	*	*	*Xij	*	*Xij	*	*	*	*	*	*
==	==	==	==	==	==	==	==	==	==	==	==	==	==
*-	*-	*-	*-	*-	*-	*-	*-	*-	*-	*-	*-	*-	*-
!!!system-decoration: [(s1,s2,s3,s4)][(s5,s6,s7,s8)]
!!!RDF**kern: > = above
!!!RDF**kern: < = below
!!!ENC: Anastazja Marusiak
!!!END: 2021-09-30
!!!ENC: Krzysztof Stępień
!!!END: 2021-10-08
